X: 776
T: Banish Misfortune.
C:Cronin.
B:O'Neill's Music of Ireland
N:O'Neill's - 776
Z:Transcribed by Stephen Foy (shf@access.digex.net)
Z:abc 1.6
M:6/8
R:Jig
K:D
A/G/|F2 D DED|DEF GFG|A3 cAG|ABc (d/c/A)G|F2 D DED|DEF GFG|
|AdB cde|d3 d2::d/e/|f2 d/d/ dcd|dfa agf|e2 c/c/ cBc|\
(e/d/)ef gfe|
|[1 f2 d/d/ dcd|dfa agf|(g/f/e)d cde|d3 d2:|[2 fga gab|\
afd ecA|fed cde|d3 d2||
||d/e/|(f/e/d).f (e/d/c).e|(d/c/A).B cAG|F2 D DED|\
DEF GFG|(A/G/A).B cAG|AdB cde|fed cde|d3 d2:|


